X:31
T:New Dale   4=6 & 2=8
S:John Moore's Book 3
Z:Transcribed by John Adams 05/2021  
%%VWML:Moore1-4495-p49-0
F:https://www.vwml.org/record/Moore3/4495/p49
M:2/4
L:1/8
K:Fmaj
V:1
A2|A A A F|G>AB d|(c/=B/c/d/e) d|c2=B2|c2||A2|(cA) (Bc)|dc cd|e3z|z2d2|c c c c | |c2||
V:2
c2|f f e  f/e/|d3 (e/f/)|g3a|g a g f | e2||z2|z2g2|a g f e/d/|c3z|z2zg/f/|c c c c | |f2||
V:3
"Air"F2|c c B A|(B>de) f|(f/d/e/f/) g f|e2 d2|c2||c2|(ec) (de)|f2A2|(A2G) B|(A/G/A/B/c) B|A2G2|F2||
V:4 clef=bass
F,2|F, F, E, F,|B,,3 A,,/B,,/|C,3 D,|E, F, G, G,,|A,,2||F,2|A,F,G,2|A,2F,2|C,3E, |(F,/E,/F,/G,/A,) B,|C2C,2|F,2||

